x.free;x={LFTri.ar(220*[-12,0,4,7].midiratio)*0.1!2}.play;
x.free;x={LFTri.ar(220*[-12-3,-3,4,7].midiratio)*0.1!2}.play;
x.free;x={LFTri.ar(220*[4-12,4,7,11].midiratio)*0.1!2}.play;


[-3,4,7]+[0,-12,-12]
[ -3, -8, -5 ]+3

~chords[5]-12
~chords[2]